X:812
T:Sole Leather Quickstep
S:Bruce & Emmett's Drummers and Fifers Guide (1862), p. 81
M:2/4
L:1/16
Q:1/4=100
K:D
%%MIDI program 72
%%MIDI transpose 8
%%MIDI ratio 3 1
(3(ABc)|d2Tf>d B2A2|(3Bcd AF DFAF|GEBA FDAF|EAce d2:|(3(ABc)|d2z2 e2z2|
f2z2g2z2|f2z2 e2z2|dAFA D2 (3(ABc)|.d2z2 .e2z2|.f2z2 .^g2z2|!tr(!a8-|!tr)!a8!D.C.!||
